svg/fluentui-system-icons/ic_fluent_text_number_list_ltr_16_regular.svg

<svg width="16" height="16" viewBox="0 0 16 16" fill="none" xmlns="http://www.w3.org/2000/svg">
<path d="M3.68423 1.01091C3.87729 1.05479 4.01368 1.2207 4.01368 1.41166V4.70581C4.01368 4.93322 3.82219 5.11757 3.58596 5.11757C3.34974 5.11757 3.15825 4.93322 3.15825 4.70581V2.57963C2.97169 2.73831 2.75056 2.89181 2.49409 3.01526C2.28281 3.11697 2.02589 3.03452 1.92025 2.83112C1.81461 2.62771 1.90025 2.38037 2.11153 2.27867C2.46535 2.10836 2.74051 1.84713 2.93118 1.61767C3.02531 1.50441 3.09555 1.40286 3.1415 1.33097C3.1627 1.2978 3.18339 1.26423 3.20219 1.22973C3.29453 1.06158 3.48853 0.966435 3.68423 1.01091ZM2.15471 7.05586C1.98767 6.89507 1.98765 6.63435 2.15467 6.47354L2.15572 6.47253L2.15693 6.47137L2.15988 6.46859L2.16776 6.46129C2.17391 6.45568 2.18184 6.44859 2.19152 6.44025C2.21087 6.42357 2.23731 6.40176 2.27057 6.3766C2.33688 6.32642 2.43152 6.26193 2.55214 6.19802C2.79299 6.07042 3.1454 5.94109 3.58393 5.94111L3.59112 5.94117C3.91125 5.94637 4.25871 6.0263 4.53792 6.22535C4.83289 6.43563 5.02344 6.76107 5.02344 7.17649C5.02344 7.62757 4.81618 7.94311 4.53538 8.16839C4.32073 8.34059 4.04529 8.47067 3.82121 8.5765C3.78525 8.59348 3.7506 8.60985 3.7177 8.62568C3.45144 8.75385 3.24954 8.86678 3.10777 9.01691C3.05092 9.07712 2.99998 9.14746 2.96119 9.23535H4.59572C4.83194 9.23535 5.02344 9.4197 5.02344 9.64712C5.02344 9.87453 4.83146 10.0589 4.59524 10.0589H2.45713C2.22091 10.0589 2.02941 9.87453 2.02941 9.64712C2.02941 9.13717 2.19981 8.75415 2.4748 8.46294C2.73402 8.18843 3.06676 8.01827 3.33515 7.88909C3.37811 7.86841 3.41971 7.84859 3.45892 7.8299C3.69012 7.71973 3.85827 7.6396 3.98775 7.53573C4.10794 7.4393 4.168 7.34307 4.168 7.17649C4.168 7.02774 4.11074 6.94556 4.02884 6.88718C3.93179 6.81799 3.77468 6.76838 3.58027 6.76465C3.3214 6.76534 3.1117 6.84157 2.9646 6.91951C2.89091 6.95855 2.83494 6.99702 2.7992 7.02406C2.78144 7.0375 2.76901 7.04787 2.76223 7.05372L2.7566 7.05867C2.58935 7.21663 2.32076 7.2157 2.15471 7.05586ZM3.09366 12.9412C3.09366 12.7137 3.28516 12.5294 3.52138 12.5294C3.81461 12.5294 3.97666 12.4498 4.05829 12.3786C4.13892 12.3083 4.17203 12.221 4.1686 12.1331C4.1624 11.9737 4.00959 11.7059 3.52138 11.7059C3.16851 11.7059 2.98575 11.7896 2.9032 11.8426C2.85995 11.8703 2.8367 11.8944 2.82745 11.9051L2.82395 11.9093C2.82756 11.9032 2.83103 11.8969 2.83435 11.8906L2.83348 11.8922L2.83236 11.8943L2.83029 11.8981L2.82682 11.9042C2.82481 11.9077 2.82222 11.9116 2.82222 11.9116L2.82395 11.9093C2.71246 12.0985 2.46527 12.1726 2.2608 12.0742C2.04952 11.9725 1.96388 11.7251 2.06952 11.5217L2.07013 11.5205L2.07077 11.5193L2.07213 11.5168L2.07516 11.5112L2.08257 11.4982C2.08813 11.4888 2.09495 11.4778 2.10316 11.4655C2.11958 11.4409 2.14161 11.411 2.17029 11.3779C2.22786 11.3114 2.31154 11.2325 2.42869 11.1574C2.66693 11.0045 3.01882 10.8823 3.52138 10.8823C4.40187 10.8823 4.99757 11.438 5.02344 12.1022C5.03523 12.4048 4.92247 12.7081 4.68433 12.9412C4.92247 13.1743 5.03523 13.4775 5.02344 13.7801C4.99757 14.4443 4.40187 15 3.52138 15C3.01882 15 2.66693 14.8779 2.42869 14.725C2.31154 14.6498 2.22786 14.5709 2.17029 14.5044C2.14161 14.4713 2.11958 14.4414 2.10316 14.4168C2.09495 14.4045 2.08813 14.3935 2.08257 14.3841L2.07516 14.3711L2.07213 14.3655L2.07077 14.363L2.07013 14.3618L2.06952 14.3606C1.96388 14.1572 2.04952 13.9099 2.2608 13.8082C2.46527 13.7098 2.71246 13.7838 2.82395 13.973L2.82745 13.9772C2.8367 13.9879 2.85995 14.012 2.9032 14.0397C2.98575 14.0927 3.16851 14.1765 3.52138 14.1765C4.00959 14.1765 4.1624 13.9086 4.1686 13.7493C4.17203 13.6613 4.13892 13.574 4.05829 13.5037C3.97666 13.4325 3.81461 13.3529 3.52138 13.3529C3.28516 13.3529 3.09366 13.1686 3.09366 12.9412ZM7.5 3C7.22386 3 7 3.22386 7 3.5C7 3.77614 7.22386 4 7.5 4H13.5C13.7761 4 14 3.77614 14 3.5C14 3.22386 13.7761 3 13.5 3H7.5ZM7.5 7C7.22386 7 7 7.22386 7 7.5C7 7.77614 7.22386 8 7.5 8H13.5C13.7761 8 14 7.77614 14 7.5C14 7.22386 13.7761 7 13.5 7H7.5ZM7.5 11C7.22386 11 7 11.2239 7 11.5C7 11.7761 7.22386 12 7.5 12H13.5C13.7761 12 14 11.7761 14 11.5C14 11.2239 13.7761 11 13.5 11H7.5Z" fill="#212121"/>
</svg>

<svg xmlns="http://www.w3.org/2000/svg" width="16" height="16"><path d="M3.684 1.01c.193.045.33.21.33.402v3.294a.42.42 0 0 1-.428.412.42.42 0 0 1-.428-.412V2.58a3.11 3.11 0 0 1-.664.435.436.436 0 0 1-.574-.184.405.405 0 0 1 .192-.552c.353-.17.629-.432.82-.661a2.884 2.884 0 0 0 .27-.388.44.44 0 0 1 .482-.22Zm-1.53 6.046a.401.401 0 0 1 0-.582l.002-.001V6.47l.004-.002.008-.008a1.12 1.12 0 0 1 .103-.084 2.2 2.2 0 0 1 1.313-.435h.007c.32.004.668.084.947.283.295.21.485.536.485.951 0 .452-.207.767-.488.992-.214.173-.49.303-.714.409-.036.016-.07.033-.103.049-.267.128-.468.24-.61.39a.763.763 0 0 0-.147.22h1.635a.42.42 0 0 1 .427.411.42.42 0 0 1-.428.412H2.457a.42.42 0 0 1-.428-.412c0-.51.17-.893.446-1.184.259-.275.592-.445.86-.574.043-.02.085-.04.124-.06.231-.11.4-.19.529-.293.12-.097.18-.193.18-.36 0-.148-.057-.23-.14-.289a.816.816 0 0 0-.448-.122 1.32 1.32 0 0 0-.818.289l-.005.005a.44.44 0 0 1-.602-.003Zm.94 5.885a.42.42 0 0 1 .427-.412c.294 0 .456-.08.537-.15a.303.303 0 0 0 .11-.246c-.006-.16-.158-.427-.647-.427-.352 0-.535.084-.618.137a.349.349 0 0 0-.076.062l-.003.004a.435.435 0 0 0 .01-.018v.001l-.002.002-.002.004-.003.006-.005.008.002-.003a.436.436 0 0 1-.563.165.405.405 0 0 1-.191-.552v-.002l.002-.003.003-.006.008-.013a.71.71 0 0 1 .087-.12c.058-.067.142-.146.259-.22.238-.153.59-.276 1.092-.276.88 0 1.477.556 1.502 1.22.012.303-.1.606-.339.84.238.232.351.535.34.838-.026.664-.622 1.22-1.503 1.22-.502 0-.854-.122-1.092-.275a1.19 1.19 0 0 1-.326-.308.71.71 0 0 1-.02-.033l-.008-.013-.003-.005-.001-.003v-.001l-.001-.001a.405.405 0 0 1 .19-.553.436.436 0 0 1 .564.165l.003.004c.01.01.033.035.076.063.083.053.266.137.618.137.489 0 .641-.268.648-.428a.303.303 0 0 0-.11-.245c-.082-.072-.244-.151-.538-.151a.42.42 0 0 1-.427-.412ZM7.5 3a.5.5 0 0 0 0 1h6a.5.5 0 0 0 0-1h-6Zm0 4a.5.5 0 0 0 0 1h6a.5.5 0 0 0 0-1h-6Zm0 4a.5.5 0 0 0 0 1h6a.5.5 0 0 0 0-1h-6Z"/></svg>
